public/onboard-background.svg

<svg width="250" height="236" viewBox="0 0 250 236" fill="none" xmlns="http://www.w3.org/2000/svg">
<path fill-rule="evenodd" clip-rule="evenodd" d="M8.25302 113.721C8.64408 113.331 8.64493 112.698 8.25494 112.307C7.86494 111.916 7.23178 111.915 6.84073 112.305L4.72887 114.411L2.61702 112.305C2.22597 111.915 1.5928 111.916 1.20281 112.307C0.812814 112.698 0.813672 113.331 1.20472 113.721L3.31274 115.823L1.20472 117.926C0.813671 118.316 0.812814 118.949 1.20281 119.34C1.5928 119.731 2.22597 119.732 2.61702 119.342L4.72887 117.236L6.84073 119.342C7.23178 119.732 7.86494 119.731 8.25494 119.34C8.64493 118.949 8.64408 118.316 8.25302 117.926L6.14501 115.823L8.25302 113.721Z" fill="#9871F5"/>
<path d="M244.156 112.674C241.487 112.674 239.313 110.515 239.313 107.843C239.313 105.181 241.478 103.012 244.156 103.012C246.825 103.012 249 105.172 249 107.843C248.991 110.515 246.825 112.674 244.156 112.674Z" stroke="#9871F5" stroke-width="2" stroke-miterlimit="10" stroke-linecap="round" stroke-linejoin="round"/>
<path d="M45.8437 29.6647C43.1745 29.6647 41 27.5051 41 24.8335C41 22.1712 43.1652 20.0023 45.8437 20.0023C48.5128 20.0023 50.6874 22.1619 50.6874 24.8335C50.678 27.5051 48.5128 29.6647 45.8437 29.6647Z" stroke="#9871F5" stroke-width="2" stroke-miterlimit="10" stroke-linecap="round" stroke-linejoin="round"/>
<path d="M81.6523 229L76 234.621" stroke="#9871F5" stroke-width="2" stroke-miterlimit="10" stroke-linecap="round" stroke-linejoin="round"/>
<path d="M81.6523 234.621L76 229" stroke="#9871F5" stroke-width="2" stroke-miterlimit="10" stroke-linecap="round" stroke-linejoin="round"/>
<path d="M225.573 223.711C222.615 223.711 220.216 221.319 220.216 218.368C220.216 215.417 222.615 213.025 225.573 213.025C228.532 213.025 230.93 215.417 230.93 218.368C230.93 221.309 228.532 223.711 225.573 223.711Z" stroke="#9871F5" stroke-width="2" stroke-miterlimit="10" stroke-linecap="round" stroke-linejoin="round"/>
<path d="M221.878 222.23L218.089 225.999" stroke="#9871F5" stroke-width="2" stroke-miterlimit="10" stroke-linecap="round" stroke-linejoin="round"/>
<path d="M16.2448 194.772C16.2448 195.739 17.0302 196.522 17.999 196.522C18.9679 196.522 19.7533 195.739 19.7533 194.772C19.7533 193.806 18.9679 193.023 17.999 193.023C17.0302 193.023 16.2448 193.806 16.2448 194.772Z" fill="#9871F5"/>
<path d="M16.2452 206.985C16.2452 207.952 17.0306 208.735 17.9995 208.735C18.9683 208.735 19.7537 207.952 19.7537 206.985C19.7537 206.019 18.9683 205.236 17.9995 205.236C17.0306 205.236 16.2452 206.019 16.2452 206.985Z" fill="#9871F5"/>
<path d="M16.2452 219.205C16.2452 220.171 17.0306 220.955 17.9995 220.955C18.9683 220.955 19.7537 220.171 19.7537 219.205C19.7537 218.239 18.9683 217.456 17.9995 217.456C17.0306 217.456 16.2452 218.239 16.2452 219.205Z" fill="#9871F5"/>
<path d="M3.99136 194.772C3.99136 195.738 4.77677 196.521 5.74562 196.521C6.71447 196.521 7.49988 195.738 7.49988 194.772C7.49988 193.806 6.71447 193.022 5.74562 193.022C4.77677 193.022 3.99136 193.806 3.99136 194.772Z" fill="#9871F5"/>
<path d="M3.99136 206.985C3.99136 207.952 4.77677 208.735 5.74562 208.735C6.71447 208.735 7.49988 207.952 7.49988 206.985C7.49988 206.019 6.71447 205.236 5.74562 205.236C4.77677 205.236 3.99136 206.019 3.99136 206.985Z" fill="#9871F5"/>
<path d="M3.99136 219.205C3.99136 220.171 4.77677 220.955 5.74562 220.955C6.71447 220.955 7.49988 220.171 7.49988 219.205C7.49988 218.239 6.71447 217.456 5.74562 217.456C4.77677 217.456 3.99136 218.239 3.99136 219.205Z" fill="#9871F5"/>
<path d="M213.096 38.4037C213.096 39.37 213.881 40.1533 214.85 40.1533C215.819 40.1533 216.604 39.37 216.604 38.4037C216.604 37.4375 215.819 36.6542 214.85 36.6542C213.881 36.6542 213.096 37.4375 213.096 38.4037Z" fill="#9871F5"/>
<path d="M200.842 38.4043C200.842 39.3706 201.627 40.1539 202.596 40.1539C203.565 40.1539 204.35 39.3706 204.35 38.4043C204.35 37.4381 203.565 36.6548 202.596 36.6548C201.627 36.6548 200.842 37.4381 200.842 38.4043Z" fill="#9871F5"/>
<path d="M188.597 38.4043C188.597 39.3706 189.383 40.1539 190.352 40.1539C191.32 40.1539 192.106 39.3706 192.106 38.4043C192.106 37.4381 191.32 36.6548 190.352 36.6548C189.383 36.6548 188.597 37.4381 188.597 38.4043Z" fill="#9871F5"/>
<path d="M176.343 38.4043C176.343 39.3706 177.129 40.1539 178.098 40.1539C179.066 40.1539 179.852 39.3706 179.852 38.4043C179.852 37.4381 179.066 36.6548 178.098 36.6548C177.129 36.6548 176.343 37.4381 176.343 38.4043Z" fill="#9871F5"/>
<path d="M164.099 38.4043C164.099 39.3706 164.884 40.1539 165.853 40.1539C166.822 40.1539 167.607 39.3706 167.607 38.4043C167.607 37.4381 166.822 36.6548 165.853 36.6548C164.884 36.6548 164.099 37.4381 164.099 38.4043Z" fill="#9871F5"/>
<path d="M151.845 38.4043C151.845 39.3706 152.63 40.1539 153.599 40.1539C154.568 40.1539 155.354 39.3706 155.354 38.4043C155.354 37.4381 154.568 36.6548 153.599 36.6548C152.63 36.6548 151.845 37.4381 151.845 38.4043Z" fill="#9871F5"/>
<path d="M139.6 38.4043C139.6 39.3706 140.386 40.1539 141.355 40.1539C142.323 40.1539 143.109 39.3706 143.109 38.4043C143.109 37.4381 142.323 36.6548 141.355 36.6548C140.386 36.6548 139.6 37.4381 139.6 38.4043Z" fill="#9871F5"/>
<path d="M213.096 26.183C213.096 27.1492 213.881 27.9325 214.85 27.9325C215.819 27.9325 216.604 27.1492 216.604 26.183C216.604 25.2168 215.819 24.4335 214.85 24.4335C213.881 24.4335 213.096 25.2168 213.096 26.183Z" fill="#9871F5"/>
<path d="M200.842 26.1831C200.842 27.1493 201.627 27.9326 202.596 27.9326C203.565 27.9326 204.35 27.1493 204.35 26.1831C204.35 25.2169 203.565 24.4336 202.596 24.4336C201.627 24.4336 200.842 25.2169 200.842 26.1831Z" fill="#9871F5"/>
<path d="M188.597 26.1831C188.597 27.1493 189.383 27.9326 190.352 27.9326C191.32 27.9326 192.106 27.1493 192.106 26.1831C192.106 25.2169 191.32 24.4336 190.352 24.4336C189.383 24.4336 188.597 25.2169 188.597 26.1831Z" fill="#9871F5"/>
<path d="M176.343 26.1831C176.343 27.1493 177.129 27.9326 178.098 27.9326C179.066 27.9326 179.852 27.1493 179.852 26.1831C179.852 25.2169 179.066 24.4336 178.098 24.4336C177.129 24.4336 176.343 25.2169 176.343 26.1831Z" fill="#9871F5"/>
<path d="M164.099 26.1831C164.099 27.1493 164.884 27.9326 165.853 27.9326C166.822 27.9326 167.607 27.1493 167.607 26.1831C167.607 25.2169 166.822 24.4336 165.853 24.4336C164.884 24.4336 164.099 25.2169 164.099 26.1831Z" fill="#9871F5"/>
<path d="M151.845 26.1831C151.845 27.1493 152.63 27.9326 153.599 27.9326C154.568 27.9326 155.354 27.1493 155.354 26.1831C155.354 25.2169 154.568 24.4336 153.599 24.4336C152.63 24.4336 151.845 25.2169 151.845 26.1831Z" fill="#9871F5"/>
<path d="M139.6 26.1831C139.6 27.1493 140.386 27.9326 141.355 27.9326C142.323 27.9326 143.109 27.1493 143.109 26.1831C143.109 25.2169 142.323 24.4336 141.355 24.4336C140.386 24.4336 139.6 25.2169 139.6 26.1831Z" fill="#9871F5"/>
<path d="M213.096 13.9707C213.096 14.9369 213.881 15.7202 214.85 15.7202C215.819 15.7202 216.604 14.9369 216.604 13.9707C216.604 13.0045 215.819 12.2212 214.85 12.2212C213.881 12.2212 213.096 13.0045 213.096 13.9707Z" fill="#9871F5"/>
<path d="M200.842 13.9707C200.842 14.9369 201.627 15.7202 202.596 15.7202C203.565 15.7202 204.35 14.9369 204.35 13.9707C204.35 13.0045 203.565 12.2212 202.596 12.2212C201.627 12.2212 200.842 13.0045 200.842 13.9707Z" fill="#9871F5"/>
<path d="M188.597 13.9707C188.597 14.9369 189.383 15.7202 190.352 15.7202C191.32 15.7202 192.106 14.9369 192.106 13.9707C192.106 13.0045 191.32 12.2212 190.352 12.2212C189.383 12.2212 188.597 13.0045 188.597 13.9707Z" fill="#9871F5"/>
<path d="M176.343 13.9707C176.343 14.9369 177.129 15.7202 178.098 15.7202C179.066 15.7202 179.852 14.9369 179.852 13.9707C179.852 13.0045 179.066 12.2212 178.098 12.2212C177.129 12.2212 176.343 13.0045 176.343 13.9707Z" fill="#9871F5"/>
<path d="M164.099 13.9707C164.099 14.9369 164.884 15.7202 165.853 15.7202C166.822 15.7202 167.607 14.9369 167.607 13.9707C167.607 13.0045 166.822 12.2212 165.853 12.2212C164.884 12.2212 164.099 13.0045 164.099 13.9707Z" fill="#9871F5"/>
<path d="M151.845 13.9707C151.845 14.9369 152.63 15.7202 153.599 15.7202C154.568 15.7202 155.354 14.9369 155.354 13.9707C155.354 13.0045 154.568 12.2212 153.599 12.2212C152.63 12.2212 151.845 13.0045 151.845 13.9707Z" fill="#9871F5"/>
<path d="M139.6 13.9707C139.6 14.9369 140.386 15.7202 141.355 15.7202C142.323 15.7202 143.109 14.9369 143.109 13.9707C143.109 13.0045 142.323 12.2212 141.355 12.2212C140.386 12.2212 139.6 13.0045 139.6 13.9707Z" fill="#9871F5"/>
<path d="M213.095 1.75C213.095 2.71623 213.88 3.49951 214.849 3.49951C215.818 3.49951 216.603 2.71623 216.603 1.75C216.603 0.783774 215.818 0.000488247 214.849 0.000488205C213.88 0.000488162 213.095 0.783774 213.095 1.75Z" fill="#9871F5"/>
<path d="M200.842 1.74951C200.842 2.71574 201.627 3.49903 202.596 3.49903C203.565 3.49903 204.35 2.71574 204.35 1.74951C204.35 0.783286 203.565 -3.43312e-08 202.596 -7.66806e-08C201.627 -1.1903e-07 200.842 0.783286 200.842 1.74951Z" fill="#9871F5"/>
<path d="M188.597 1.74951C188.597 2.71574 189.383 3.49903 190.352 3.49903C191.32 3.49903 192.106 2.71574 192.106 1.74951C192.106 0.783286 191.32 -3.43315e-08 190.352 -7.66813e-08C189.383 -1.19031e-07 188.597 0.783286 188.597 1.74951Z" fill="#9871F5"/>
<path d="M176.343 1.74951C176.343 2.71574 177.129 3.49903 178.098 3.49903C179.066 3.49903 179.852 2.71574 179.852 1.74951C179.852 0.783286 179.066 -3.43312e-08 178.098 -7.66806e-08C177.129 -1.1903e-07 176.343 0.783286 176.343 1.74951Z" fill="#9871F5"/>
<path d="M164.099 1.74951C164.099 2.71574 164.884 3.49903 165.853 3.49903C166.822 3.49903 167.607 2.71574 167.607 1.74951C167.607 0.783286 166.822 -3.43315e-08 165.853 -7.66813e-08C164.884 -1.19031e-07 164.099 0.783286 164.099 1.74951Z" fill="#9871F5"/>
<path d="M151.845 1.74951C151.845 2.71574 152.63 3.49903 153.599 3.49903C154.568 3.49903 155.354 2.71574 155.354 1.74951C155.354 0.783286 154.568 -3.43315e-08 153.599 -7.66813e-08C152.63 -1.19031e-07 151.845 0.783286 151.845 1.74951Z" fill="#9871F5"/>
<path d="M139.6 1.74951C139.6 2.71574 140.386 3.49903 141.355 3.49903C142.323 3.49903 143.109 2.71574 143.109 1.74951C143.109 0.783286 142.323 -3.43315e-08 141.355 -7.66813e-08C140.386 -1.19031e-07 139.6 0.783286 139.6 1.74951Z" fill="#9871F5"/>
</svg>

<svg width="250" height="236" fill="none" xmlns="http://www.w3.org/2000/svg"><path fill-rule="evenodd" clip-rule="evenodd" d="M8.253 113.721a1 1 0 1 0-1.412-1.416l-2.112 2.106-2.112-2.106a1 1 0 0 0-1.412 1.416l2.108 2.102-2.108 2.103a1 1 0 1 0 1.412 1.416l2.112-2.106 2.112 2.106a1 1 0 0 0 1.412-1.416l-2.108-2.103 2.108-2.102Z" fill="#9871F5"/><path d="M244.156 112.674c-2.669 0-4.843-2.159-4.843-4.831a4.839 4.839 0 0 1 4.843-4.831c2.669 0 4.844 2.16 4.844 4.831a4.845 4.845 0 0 1-4.844 4.831ZM45.844 29.665c-2.67 0-4.844-2.16-4.844-4.831a4.84 4.84 0 0 1 4.844-4.832c2.669 0 4.843 2.16 4.843 4.832a4.845 4.845 0 0 1-4.843 4.83ZM81.652 229 76 234.621M81.652 234.621 76 229M225.573 223.711c-2.958 0-5.357-2.392-5.357-5.343s2.399-5.343 5.357-5.343c2.959 0 5.357 2.392 5.357 5.343 0 2.941-2.398 5.343-5.357 5.343ZM221.878 222.23l-3.789 3.769" stroke="#9871F5" stroke-width="2" stroke-miterlimit="10" stroke-linecap="round" stroke-linejoin="round"/><path d="M16.245 194.772c0 .967.785 1.75 1.754 1.75s1.754-.783 1.754-1.75c0-.966-.785-1.749-1.754-1.749s-1.754.783-1.754 1.749ZM16.245 206.985c0 .967.786 1.75 1.755 1.75.968 0 1.754-.783 1.754-1.75 0-.966-.786-1.749-1.755-1.749-.968 0-1.754.783-1.754 1.749ZM16.245 219.205c0 .966.786 1.75 1.755 1.75.968 0 1.754-.784 1.754-1.75s-.786-1.749-1.755-1.749c-.968 0-1.754.783-1.754 1.749ZM3.991 194.772c0 .966.786 1.749 1.755 1.749.968 0 1.754-.783 1.754-1.749 0-.966-.786-1.75-1.754-1.75-.97 0-1.755.784-1.755 1.75ZM3.991 206.985c0 .967.786 1.75 1.755 1.75.968 0 1.754-.783 1.754-1.75 0-.966-.786-1.749-1.754-1.749-.97 0-1.755.783-1.755 1.749ZM3.991 219.205c0 .966.786 1.75 1.755 1.75.968 0 1.754-.784 1.754-1.75s-.786-1.749-1.754-1.749c-.97 0-1.755.783-1.755 1.749ZM213.096 38.404c0 .966.785 1.75 1.754 1.75s1.754-.784 1.754-1.75c0-.967-.785-1.75-1.754-1.75s-1.754.783-1.754 1.75ZM200.842 38.404c0 .967.785 1.75 1.754 1.75s1.754-.783 1.754-1.75c0-.966-.785-1.75-1.754-1.75s-1.754.784-1.754 1.75ZM188.597 38.404c0 .967.786 1.75 1.755 1.75.968 0 1.754-.783 1.754-1.75 0-.966-.786-1.75-1.754-1.75-.969 0-1.755.784-1.755 1.75ZM176.343 38.404c0 .967.786 1.75 1.755 1.75.968 0 1.754-.783 1.754-1.75 0-.966-.786-1.75-1.754-1.75-.969 0-1.755.784-1.755 1.75ZM164.099 38.404c0 .967.785 1.75 1.754 1.75s1.754-.783 1.754-1.75c0-.966-.785-1.75-1.754-1.75s-1.754.784-1.754 1.75ZM151.845 38.404c0 .967.785 1.75 1.754 1.75s1.755-.783 1.755-1.75c0-.966-.786-1.75-1.755-1.75-.969 0-1.754.784-1.754 1.75ZM139.6 38.404c0 .967.786 1.75 1.755 1.75.968 0 1.754-.783 1.754-1.75 0-.966-.786-1.75-1.754-1.75-.969 0-1.755.784-1.755 1.75ZM213.096 26.183c0 .966.785 1.75 1.754 1.75s1.754-.784 1.754-1.75-.785-1.75-1.754-1.75-1.754.784-1.754 1.75ZM200.842 26.183c0 .966.785 1.75 1.754 1.75s1.754-.784 1.754-1.75-.785-1.75-1.754-1.75-1.754.784-1.754 1.75ZM188.597 26.183c0 .966.786 1.75 1.755 1.75.968 0 1.754-.784 1.754-1.75s-.786-1.75-1.754-1.75c-.969 0-1.755.784-1.755 1.75ZM176.343 26.183c0 .966.786 1.75 1.755 1.75.968 0 1.754-.784 1.754-1.75s-.786-1.75-1.754-1.75c-.969 0-1.755.784-1.755 1.75ZM164.099 26.183c0 .966.785 1.75 1.754 1.75s1.754-.784 1.754-1.75-.785-1.75-1.754-1.75-1.754.784-1.754 1.75ZM151.845 26.183c0 .966.785 1.75 1.754 1.75s1.755-.784 1.755-1.75-.786-1.75-1.755-1.75c-.969 0-1.754.784-1.754 1.75ZM139.6 26.183c0 .966.786 1.75 1.755 1.75.968 0 1.754-.784 1.754-1.75s-.786-1.75-1.754-1.75c-.969 0-1.755.784-1.755 1.75ZM213.096 13.97c0 .967.785 1.75 1.754 1.75s1.754-.783 1.754-1.75c0-.966-.785-1.749-1.754-1.749s-1.754.784-1.754 1.75ZM200.842 13.97c0 .967.785 1.75 1.754 1.75s1.754-.783 1.754-1.75c0-.966-.785-1.749-1.754-1.749s-1.754.784-1.754 1.75ZM188.597 13.97c0 .967.786 1.75 1.755 1.75.968 0 1.754-.783 1.754-1.75 0-.966-.786-1.749-1.754-1.749-.969 0-1.755.784-1.755 1.75ZM176.343 13.97c0 .967.786 1.75 1.755 1.75.968 0 1.754-.783 1.754-1.75 0-.966-.786-1.749-1.754-1.749-.969 0-1.755.784-1.755 1.75ZM164.099 13.97c0 .967.785 1.75 1.754 1.75s1.754-.783 1.754-1.75c0-.966-.785-1.749-1.754-1.749s-1.754.784-1.754 1.75ZM151.845 13.97c0 .967.785 1.75 1.754 1.75s1.755-.783 1.755-1.75c0-.966-.786-1.749-1.755-1.749-.969 0-1.754.784-1.754 1.75ZM139.6 13.97c0 .967.786 1.75 1.755 1.75.968 0 1.754-.783 1.754-1.75 0-.966-.786-1.749-1.754-1.749-.969 0-1.755.784-1.755 1.75ZM213.095 1.75c0 .966.785 1.75 1.754 1.75s1.754-.784 1.754-1.75S215.818 0 214.849 0s-1.754.784-1.754 1.75ZM200.842 1.75c0 .966.785 1.749 1.754 1.749s1.754-.783 1.754-1.75c0-.966-.785-1.749-1.754-1.749s-1.754.783-1.754 1.75ZM188.597 1.75c0 .966.786 1.749 1.755 1.749.968 0 1.754-.783 1.754-1.75 0-.966-.786-1.749-1.754-1.749-.969 0-1.755.783-1.755 1.75ZM176.343 1.75c0 .966.786 1.749 1.755 1.749.968 0 1.754-.783 1.754-1.75 0-.966-.786-1.749-1.754-1.749-.969 0-1.755.783-1.755 1.75ZM164.099 1.75c0 .966.785 1.749 1.754 1.749s1.754-.783 1.754-1.75c0-.966-.785-1.749-1.754-1.749s-1.754.783-1.754 1.75ZM151.845 1.75c0 .966.785 1.749 1.754 1.749s1.755-.783 1.755-1.75c0-.966-.786-1.749-1.755-1.749-.969 0-1.754.783-1.754 1.75ZM139.6 1.75c0 .966.786 1.749 1.755 1.749.968 0 1.754-.783 1.754-1.75 0-.966-.786-1.749-1.754-1.749-.969 0-1.755.783-1.755 1.75Z" fill="#9871F5"/></svg>
